**kern	**kern
*part1	*part1
*staff2	*staff1
*I"Piano	*
*clefF4	*clefG2
*k[b-e-]	*k[b-e-]
*M2/4	*M2/4
=1	=1
4B-	8r
.	8f
8fL	8dd
8e-J	8cc
=	=
8e-L	(8b-L
8c	8aJ)
8B-	(8gL
8AJ	8fJ)
=	=
8GL	4c 4b-
8C	.
8B-	4c 4g
8CJ	.
=	=
.	16qqg/
*	*^
8AL	8fL	4c
8G	8enJ	.
8A	8f	4ryy
8EnJ	8g	.
*	*v	*v
=	=
8FL	(8aL
8G	8b-J)
8A	(8ccL
8B-J	8ddJ)
=	=
4A	(8ccL
.	8ffJ)
4B-	(8eenL
.	8ddJ)
=	=
4c	(8ccL
.	8b-J)
4C	(8aL
.	8gJ)
=	=
8FL	4f
8FF	.
8AA	4r
8CJ	.
=	=
4.F	8r
.	8f
.	8a
8G	8b-
=	=
*-	*-
!!!system-decoration: {(s1,s2)}
